X:380
T: Shove Into Me Joanie!
T: Br\'uigh Isteach Liom, a Shiobh\'ain\'in
S: B.Breathnach:"Ceol Rince na hEireann" IV/77
Z: B.Black
L: 1/8
M: 2/4
Q: 280
R: polka
K: G
D|: GA Bc|d2 dB|c2 cA|B2 BA|
GA Bc|d2 de|f2 dc|AG G2 :|
g2 fe|d2 dB|c2 cA|B2 Bd|
g2 fe|d2 de|f2 dc|AG G2 :|
